**kern	**text	**kern	**text	**kern	**text	**kern	**text	**kern	**text	**cdata-harm
*staff5	*staff5	*staff4	*staff4	*staff3	*staff3	*staff2	*staff2	*staff1	*staff1	*
=1-	=1-	=1-	=1-	=1-	=1-	=1-	=1-	=1-	=1-	=1-
*clefF4	*	*clefGv2	*	*clefGv2	*	*clefGv2	*	*clefG2	*	*
*k[]	*	*k[]	*	*k[]	*	*k[]	*	*k[]	*	*
*M4/4	*	*M4/4	*	*M4/4	*	*M4/4	*	*M4/4	*	*
1r	.	2D/	Hor	1r	.	2r	.	1r	.	<CON_5v
.	.	4D/	fug-	.	.	2A/	Hor	.	.	.
.	.	4E/	.	.	.	.	.	.	.	.
=2	=2	=2	=2	=2	=2	=2	=2	=2	=2	.
2r	.	4F/	.	1r	.	4A/	fug-	1r	.	.
.	.	4G/	.	.	.	4B\	.	.	.	.
2AA/	Hor	[2A/	.	.	.	4c\	.	.	.	.
.	.	.	.	.	.	4d\	.	.	.	.
=3	=3	=3	=3	=3	=3	=3	=3	=3	=3	.
4AA/	fug-	4A/]	.	1r	.	2.e\	.	1r	.	.
4BB/	.	8G/L	.	.	.	.	.	.	.	.
.	.	8F/J	.	.	.	.	.	.	.	.
4C/	.	4E/	.	.	.	.	.	.	.	.
4D\	.	4F/	.	.	.	8d\L	.	.	.	.
.	.	.	.	.	.	8c\J	.	.	.	.
=4	=4	=4	=4	=4	=4	=4	=4	=4	=4	.
4E\	.	8G/L	.	1r	.	4B\	.	1r	.	.
.	.	8E/J	.	.	.	.	.	.	.	.
4F\	.	2A/	.	.	.	4A/	.	.	.	.
2E\	.	.	.	.	.	4B\	.	.	.	.
.	.	4G/	.	.	.	4c\	.	.	.	.
=5	=5	=5	=5	=5	=5	=5	=5	=5	=5	.
2D\	gi	[1A/	gi	2r	.	4d\	.	2d/	Hor	.
.	.	.	.	.	.	4e\	.	.	.	.
2r	.	.	.	2D/	Hor	2f\	.	4d/	fug-	.
.	.	.	.	.	.	.	.	4e/	.	.
=6	=6	=6	=6	=6	=6	=6	=6	=6	=6	.
2D\	Hor	1A/]	.	4D/	fug-	2d\	gi	4f/	.	.
.	.	.	.	4E/	.	.	.	4g/	.	.
4D\	fug-	.	.	4F/	.	2A/	Hor	[2a/	.	.
4E\	.	.	.	4G/	.	.	.	.	.	.
=7	=7	=7	=7	=7	=7	=7	=7	=7	=7	.
4F\	.	1r	.	2.A/	.	4A/	fug-	4a/]	.	.
4G\	.	.	.	.	.	4B\	.	8g/L	.	.
.	.	.	.	.	.	.	.	8f/J	.	.
4A\	.	.	.	.	.	4c\	.	8e/L	.	.
.	.	.	.	.	.	.	.	8f/J	.	.
8G\L	.	.	.	4B\	.	4d\	.	[4g/	.	.
8F\J	.	.	.	.	.	.	.	.	.	.
=8	=8	=8	=8	=8	=8	=8	=8	=8	=8	.
4E\	.	1r	.	4c\	.	4e\	.	8g/L]	.	.
.	.	.	.	.	.	.	.	8e/J	.	.
4D\	.	.	.	4d\	.	4f\	.	2a/	.	.
2E\	.	.	.	2B\	.	2e\	.	.	.	.
.	.	.	.	.	.	.	.	4g/	.	.
=9	=9	=9	=9	=9	=9	=9	=9	=9	=9	.
2AA/	gi	2r	.	2c#\	gi	2e\	gi	2a/	gi	>
4r	.	4r	.	4r	.	4r	.	4r	.	.
[4D\	in-	[4A/	in-	[4d\	in-	[4f\	in-	[4a/	in-	<HOM_5v
=10	=10	=10	=10	=10	=10	=10	=10	=10	=10	.
4D\]	.	4A/]	.	4d\]	.	4f\]	.	4a/]	.	.
4D\	fe-	4A/	fe-	4d\	fe-	4f\	fe-	4a/	fe-	.
2D\	del	2A/	del	2d\	del	2f\	del	2a/	del	.
=11	=11	=11	=11	=11	=11	=11	=11	=11	=11	.
1BB-/	om-	1F/	om-	1d\	om-	1f\	om-	1b-\	om-	.
=12	=12	=12	=12	=12	=12	=12	=12	=12	=12	.
2FF/	bra	2F/	bra	2c\	bra	2f\	bra	1a/	bra	>
4r	.	2A/	Del	2c\	Del	4r	.	.	.	<HOM_4v+CON_1v
4F\	Del	.	.	.	.	4f\	Del	.	.	.
=13	=13	=13	=13	=13	=13	=13	=13	=13	=13	.
2C/	mio	2G/	mio	2c\	mio	2e\	mio	1r	.	.
[2D\	stan-	[2F/	stan-	[2A/	stan-	[2d\	stan-	.	.	.
=14	=14	=14	=14	=14	=14	=14	=14	=14	=14	.
4D\]	.	4F/]	.	4A/]	.	4d\]	.	1r	.	.
4AA/	co	4E/	co	4A/	co	4c\	co	.	.	.
2BB-/	pen-	2D/	pen-	2F/	pen-	2B-\	pen-	.	.	.
=15	=15	=15	=15	=15	=15	=15	=15	=15	=15	.
2FF/	sier	2C/	sier	1F/	sier	2A/	sier	1a/	De	.
2FF/	pian-	2F/	pian-	.	.	2c\	pian-	.	.	.
=16	=16	=16	=16	=16	=16	=16	=16	=16	=16	.
2GG/	tain	2D/	tain-	1r	.	2B-\	tain-	2g/	mio	.
2AA/	fe-	2C/	fe-	.	.	4A/	fe-	[2f/	stan-	.
.	.	.	.	.	.	[4A/	li-	.	.	.
=17	=17	=17	=17	=17	=17	=17	=17	=17	=17	.
1BB-/	de-	1D/	li-	1r	.	4A/]	.	4f/]	.	.
.	.	.	.	.	.	8G/L	.	4e/	co	.
.	.	.	.	.	.	8F/J	.	.	.	.
.	.	.	.	.	.	2G/	.	2d/	pen-	.
=18	=18	=18	=18	=18	=18	=18	=18	=18	=18	.
1AA/	le	1E/	ce	2r	.	2A/	ce	2c/	sier	>
.	.	.	.	2A/	del	2a\	del	2cc\	del	<HOMrep_3v
=19	=19	=19	=19	=19	=19	=19	=19	=19	=19	.
1r	.	1r	.	2E/	mio	2g\	mio	2b\	mio	.
.	.	.	.	[2F/	stan-	[2f\	stan-	[2a/	stan-	.
=20	=20	=20	=20	=20	=20	=20	=20	=20	=20	.
1r	.	1r	.	4F/]	.	4f\]	.	4a/]	.	.
.	.	.	.	4C/	co	4e\	co	4g/	co	.
.	.	.	.	2D/	pen-	2d\	pen-	2f/	pen-	.
=21	=21	=21	=21	=21	=21	=21	=21	=21	=21	.
1r	.	1r	.	2A/	sier	2c#\	sier	2e/	sier	.
.	.	.	.	2A/	pian-	2e\	pian-	2c#/	pian-	.
=22	=22	=22	=22	=22	=22	=22	=22	=22	=22	.
1r	.	2r	.	2D/	tain-	2f\	tain-	2d/	tain-	.
.	.	4r	.	2C#/	fe-	2e\	fe-	2e/	fe-	.
.	.	[4A/	svel-	.	.	.	.	.	.	<ANTIF_3v
=23	=23	=23	=23	=23	=23	=23	=23	=23	=23	.
1r	.	8A/L]	.	1D/	li-	2d\	li-	1f/	li-	.
.	.	8A/J	li	.	.	.	.	.	.	.
.	.	4A/	la	.	.	.	.	.	.	.
.	.	4A/	tua	.	.	2A/	ce	.	.	.
.	.	4d\	ra-	.	.	.	.	.	.	.
=24	=24	=24	=24	=24	=24	=24	=24	=24	=24	.
2r	.	2c\	di-	2A/	ce	2r	.	1e/	ce	>
4r	.	4A/	ce	4r	.	4r	.	.	.	.
[4AA/	svel-	[4E/	svel-	[4A/	svel-	4c#\	svel-	.	.	.
=25	=25	=25	=25	=25	=25	=25	=25	=25	=25	.
8AA/L]	.	8E/L]	.	8A/L]	.	8c\L	.	1r	.	.
8AA/J	li	8E/J	li	8A/J	li	8c\J	li	.	.	.
4AA/	la	4E/	la	4A/	la	4c\	la	.	.	.
4AA/	tua	4E/	tua	4A/	tua	4c\	tua	.	.	.
4D\	ra-	4F/	ra-	4A/	ra-	4d\	ra-	.	.	.
=26	=26	=26	=26	=26	=26	=26	=26	=26	=26	.
2C/	di-	2G/	di-	2c\	di-	2e\	di-	2r	.	.
2AA/	ce	2A/	ce	4c\	ce	4e\	ce	4r	.	.
.	.	.	.	[4A/	svel-	4c#\	svel-	[4e/	Svel-	.
=27	=27	=27	=27	=27	=27	=27	=27	=27	=27	.
1r	.	1r	.	8A/L]	.	8c\L	.	8e/L]	.	.
.	.	.	.	8A/J	li	8c\J	li	8e/J	li	.
.	.	.	.	4A/	la	4c\	la	4e/	la	.
.	.	.	.	4A/	tua	4c\	tua	4e/	tua	.
.	.	.	.	4d\	ra-	4d\	ra-	4f/	ra-	.
=28	=28	=28	=28	=28	=28	=28	=28	=28	=28	.
2r	.	2r	.	2.c\	di-	2e\	di-	2g/	di-	.
4r	.	4r	.	.	.	4e\	ce	4g/	ce	>
[4D\	svel-	[4A/	svel-	4A/	ce	[4d\	svel-	[4f#/	svel-	<HOM_4v+imit_1v
=29	=29	=29	=29	=29	=29	=29	=29	=29	=29	.
8D\L]	.	8A/L]	.	2.d\	dal	8d\L]	.	8f/L 8f#/_	.	.
8D\J	li	8A/J	li	.	.	8d\J	li	8f/J 8f#/]	li	.
4D\	la	4A/	la	.	.	4d\	la	4f/	la	.
4D\	tua	4A/	tua	.	.	4.d\	tua	4f/	tua	.
4G\	ra-	4B\	ra-	4B\	cor	.	.	4g/	ra-	.
.	.	.	.	.	.	8e\	ra-	.	.	.
=30	=30	=30	=30	=30	=30	=30	=30	=30	=30	.
2F\	di-	2c\	di-	2A/	mi-	[1f\	di-	[1a/	di-	.
2D\	ce	2F/	ce	2A/	o;	.	.	.	.	.
=31	=31	=31	=31	=31	=31	=31	=31	=31	=31	.
2.C/	dal	2.c\	dal	1r	.	2f\]	.	2a/]	.	<<CONlib_4v+2doub
.	.	.	.	.	.	2e\	ce	2g/	ce	>
8D\L	.	4B\	.	.	.	.	.	.	.	.
8E\J	.	.	.	.	.	.	.	.	.	.
=32	=32	=32	=32	=32	=32	=32	=32	=32	=32	.
2F\	.	2A/	.	1r	.	2c\	dal	4f/	dal	.
.	.	.	.	.	.	.	.	4f/	cor	.
2C/	cor	2G/	cor	.	.	2c\	cor	[2e/	mi-	.
=33	=33	=33	=33	=33	=33	=33	=33	=33	=33	.
1D\	mi-	2.F/	mi-	1r	.	[1A/	mio-	4e/]	.	.
.	.	.	.	.	.	.	.	4d/	.	.
.	.	.	.	.	.	.	.	[2d/	.	.
.	.	8E/L	.	.	.	.	.	.	.	.
.	.	8D/J	.	.	.	.	.	.	.	.
=34	=34	=34	=34	=34	=34	=34	=34	=34	=34	.
1AA/	o;	1E/	.	1r	.	1A/]	.	2d/]	.	.
.	.	.	.	.	.	.	.	2c/	.	.
=35	=35	=35	=35	=35	=35	=35	=35	=35	=35	.
1r	.	1D/	o;	2r	.	2A/	o;	2d/	o;	>>
.	.	.	.	2F/	C'hor	4r	.	4r	.	<ANTIF_3v
.	.	.	.	.	.	4f\	C'hor	4a/	C'hor	.
=36	=36	=36	=36	=36	=36	=36	=36	=36	=36	.
1r	.	1r	.	4c\	gius-	4e\	gius-	4g/	gius-	.
.	.	.	.	4A/	to	4f\	to	4a/	to	.
.	.	.	.	4B-\	sdeg-	4d\	sdeg-	4f/	sdeg-	.
.	.	.	.	4G/	no	4e\	no	4g/	no	.
=37	=37	=37	=37	=37	=37	=37	=37	=37	=37	.
2r	.	2r	.	4.F/	sgom-	2f\	sgom-	2.a/	sgom-	.
.	.	.	.	8G/	.	.	.	.	.	.
2D\	C'hor	2F/	C'hor	[2A/	.	2f\	bra	.	.	.
.	.	.	.	.	.	.	.	8g/L	.	.
.	.	.	.	.	.	.	.	8f/J	.	.
=38	=38	=38	=38	=38	=38	=38	=38	=38	=38	.
4C/	gius-	4c\	gius-	4A/]	.	4r	.	4e/	.	.
4D\	to	4A/	to	8G/L	.	4d\	C'hor	2f/	.	.
.	.	.	.	8F/J	.	.	.	.	.	.
4BB-/	sdeg-	4B-\	sdeg-	2G/	.	4d\	gius-	.	.	.
4C/	no	4G/	no	.	.	4c\	to	4e/	.	.
=39	=39	=39	=39	=39	=39	=39	=39	=39	=39	.
2FF/	sgom-	2A/	sgom-	4F/	bra	2c\	sdeg-	1f/	bra	.
.	.	.	.	4F/	C'hor	.	.	.	.	.
4FF/	bra	4A/	bra	[2c\	gius-	4c\	no	.	.	>
4FF/	C'hor	4A/	C'hor	.	.	4f\	C'hor	.	.	<HOMlib_4v
=40	=40	=40	=40	=40	=40	=40	=40	=40	=40	.
4C/	gius-	4G/	gius-	4c\]	.	4e\	gius-	1r	.	.
4AA/	to	4A/	to	4c\	to	4f\	to	.	.	.
4BB-/	sdeg-	4F/	sdeg-	2B-\	sdeg-	4d\	sdeg-	.	.	.
4GG/	no	4G/	no	.	.	4e\	no	.	.	.
=41	=41	=41	=41	=41	=41	=41	=41	=41	=41	.
2.FF/	sgom-	2.A/	sgom-	2c\	no	2.f\	sgom-	1r	.	.
.	.	.	.	[2c\	sgom-	.	.	.	.	.
4GG/	.	8G/L	.	.	.	8e\L	.	.	.	.
.	.	8F/J	.	.	.	8d\J	.	.	.	.
=42	=42	=42	=42	=42	=42	=42	=42	=42	=42	.
4AA/	.	4E/	.	4c\]	.	[1c\	.	1r	.	.
8GG/L	.	2F/	.	8B/L	.	.	.	.	.	.
8FF/J	.	.	.	8A/J	.	.	.	.	.	.
2C/	.	.	.	2G/	.	.	.	.	.	.
.	.	4E/	.	.	.	.	.	.	.	.
=43	=43	=43	=43	=43	=43	=43	=43	=43	=43	.
2FF/	bra	4F/	bra	2A/	bra	2c\]	.	2r	.	.
.	.	2F/	C'hor	.	.	.	.	.	.	.
2F\	C'hor	.	.	4r	.	2c\	bra	2a/	C'hor	.
.	.	[4c\	gius-	4A/	C'hor	.	.	.	.	.
=44	=44	=44	=44	=44	=44	=44	=44	=44	=44	.
4E\	gius-	4c\]	.	4c\	gius-	4r	.	4g/	gius-	.
4F\	to	4A/	to	4c\	to	4f\	C'hor	4a/	to	.
4D\	sdeg-	4B-\	sdeg-	4d\	sdeg-	4f\	gius-	4f/	sdeg-	.
4E\	no	4G/	no	4c\	no	4e\	to	4g/	no	.
=45	=45	=45	=45	=45	=45	=45	=45	=45	=45	.
2.F\	sgom-	4.F/	sgom-	2A/	sgom-	4c\	sdeg-	2.a/	sgom-	.
.	.	.	.	.	.	4d\	no	.	.	.
.	.	8G/	.	.	.	.	.	.	.	.
.	.	[2A/	.	2A/	bra	[2c\	sgom-	.	.	.
8E\L	.	.	.	.	.	.	.	8g/L	.	.
8D\J	.	.	.	.	.	.	.	8f/J	.	.
=46	=46	=46	=46	=46	=46	=46	=46	=46	=46	.
1C/	.	4A/]	.	2r	.	4c\]	.	4e/	.	.
.	.	8G/L	.	.	.	8B/L	.	2f/	.	.
.	.	8F/J	.	.	.	8A/J	.	.	.	.
.	.	2G/	.	[2c\	Quel	2G/	.	.	.	<CON_5v+2mot
.	.	.	.	.	.	.	.	4e/	.	.
=47	=47	=47	=47	=47	=47	=47	=47	=47	=47	.
2FF/	bra	1F/	bra	4c\]	.	2.A/	bra	1f/	bra	>
.	.	.	.	2c\	ch'in-	.	.	.	.	.
4r	.	.	.	.	.	.	.	.	.	.
4F\	Quel	.	.	4d\	gom-	4A/	C'hor	.	.	.
=48	=48	=48	=48	=48	=48	=48	=48	=48	=48	.
2.F\	h'in-	1r	.	4c\	br&ograve;	4A/	gius-	2r	.	.
.	.	.	.	4A/	l'in-	4c\	to	.	.	.
.	.	.	.	4.c\	gius-	4A/	sdeg-	[2cc\	Quel	.
4E\	gom-	.	.	.	.	4G/	noin-	.	.	.
.	.	.	.	8B\	to	.	.	.	.	.
=49	=49	=49	=49	=49	=49	=49	=49	=49	=49	.
4F\	br&ograve;	2r	.	[1A/	mio	2c\	gom-	4cc\]	.	.
4A\	l'in-	.	.	.	.	.	.	2cc\	ch'in-	.
4.F\	gius-	[2F/	Quel	.	.	2A/	bra	.	.	.
.	.	.	.	.	.	.	.	4dd\	gom-	.
8G\	to	.	.	.	.	.	.	.	.	.
=50	=50	=50	=50	=50	=50	=50	=50	=50	=50	.
4A\	mio	4F/]	.	2A/]	.	2r	.	1cc\	br&ograve;	.
4AA/	de-	2F/	ch'in-	.	.	.	.	.	.	.
2C/	si-	.	.	2G/	de-	2c\	Quel	.	.	.
.	.	4E/	gom-	.	.	.	.	.	.	.
=51	=51	=51	=51	=51	=51	=51	=51	=51	=51	.
1FF/	o	2.F/	br&ograve;	2A/	si-	4c\	ch'in-	2.a/	l'in-	.
.	.	.	.	.	.	4d\	gom-	.	.	.
.	.	.	.	2A/	o	2c\	br&ograve;	.	.	.
.	.	4A/	l'in-	.	.	.	.	[4cc\	gius-	.
=52	=52	=52	=52	=52	=52	=52	=52	=52	=52	.
1r	.	4.F/	gius-	4r	.	4A/	l'in-	8cc\L]	.	.
.	.	.	.	.	.	.	.	8b\J	to	.
.	.	.	.	4c\	Quel	[4f\	gius-	2a/	mio	.
.	.	8G/	to	.	.	.	.	.	.	.
.	.	4A/	mio	4c\	ch'in-	8f\L]	.	.	.	.
.	.	.	.	.	.	8e\J	to	.	.	.
.	.	4B-\	de-	4d\	gom-	4d\	mio	4g/	de-	.
=53	=53	=53	=53	=53	=53	=53	=53	=53	=53	.
1r	.	1A/	si-	4e\	br&ograve;	4c\	de-	2a/	si-	.
.	.	.	.	4f\	l'in-	2d\	si-	.	.	.
.	.	.	.	2e\	gius-	.	.	2a/	o	.
.	.	.	.	.	.	4c\	.	.	.	.
=54	=54	=54	=54	=54	=54	=54	=54	=54	=54	.
1r	.	[1D/	o	4d\	to	1d\	o	4r	.	.
.	.	.	.	4A/	mio	.	.	4f/	Quel	.
.	.	.	.	4A/	de-	.	.	4f/	ch'in-	.
.	.	.	.	4B-\	si-	.	.	4g/	gom-	.
=55	=55	=55	=55	=55	=55	=55	=55	=55	=55	.
2r	.	1D/]	.	2A/	o	4r	.	4f/	br&ograve;	.
.	.	.	.	.	.	4A/	Quel	4d/	l'in-	.
2D\	Quel	.	.	4r	.	4A/	ch'in-	4.f/	.	.
.	.	.	.	4F/	Quel	4D/	gom-	.	.	.
.	.	.	.	.	.	.	.	8e/	gius-	.
=56	=56	=56	=56	=56	=56	=56	=56	=56	=56	.
4D\	ch'in-	1r	.	4F/	ch'in-	2.A/	br&ograve;	4d/	to	.
4AA/	gom-	.	.	4E/	gom-	.	.	4c/	mio	.
4D\	br&ograve;	.	.	4F/	br&ograve;	.	.	[2d/	des-	.
4D\	l'in-	.	.	4A/	l'in-	4F/	l'in-	.	.	.
=57	=57	=57	=57	=57	=57	=57	=57	=57	=57	.
4D\	gius-	4r	.	4.F/	gius-	4.f\	gius-	2d/]	.	.
4D\	to	4F/	Quel	.	.	.	.	.	.	.
.	.	.	.	8G/	to	8f\	to	.	.	.
4D\	mio	4F/	ch'in-	4A/	mio	4f\	mio	2d/	io	.
4GG/	de-	4G/	gom-	4B-\	de-	4d\	des-	.	.	.
=58	=58	=58	=58	=58	=58	=58	=58	=58	=58	.
2D\	si-	4F/	br&ograve;	1A/	si-	2d\	.	2r	.	.
.	.	4D/	l'in-	.	.	.	.	.	.	.
2D\	o	4.F/	gius-	.	.	2d\	io	[2f/	Quel	.
.	.	8E/	to	.	.	.	.	.	.	.
=59	=59	=59	=59	=59	=59	=59	=59	=59	=59	.
4r	.	2.D/	mio	2A/	o	4r	.	4f/]	.	.
4F\	Quel	.	.	.	.	4A/	.	2f/	ch'in-	.
4F\	ch'in-	.	.	2r	.	4A/	.	.	.	.
4G\	gom-	4C/	de-	.	.	4c\	.	4e/	gom-	.
=60	=60	=60	=60	=60	=60	=60	=60	=60	=60	.
4F\	br&ograve;	2D/	si-	4r	.	4A/	.	2.f/	br&ograve;	.
4D\	l'in-	.	.	4A/	Quel	4A/	.	.	.	.
4.F\	gius-	2D/	o	4A/	ch'in-	[2d\	.	.	.	.
.	.	.	.	4D/	gom-	.	.	4a/	l'in-	.
8E\	to	.	.	.	.	.	.	.	.	.
=61	=61	=61	=61	=61	=61	=61	=61	=61	=61	.
2.D\	mio	4r	.	4A/	br&ograve;	2d\]	.	4.f/	gius-	.
.	.	4F/	Quel	4A/	l'in-	.	.	.	.	.
.	.	.	.	.	.	.	.	8g/	to	.
.	.	4F/	ch'in-	4.A/	gius-	2A/	.	[2a/	mio-	.
4C/	de-	4E/	gom-	.	.	.	.	.	.	.
.	.	.	.	8A/	to	.	.	.	.	.
=62	=62	=62	=62	=62	=62	=62	=62	=62	=62	.
2D\	si-	2.F/	br&ograve;	4A/	mio	4r	.	4a/]	.	.
.	.	.	.	4d\	de-	4F/	.	4b-\	de-	.
4D\	o	.	.	4d\	si-	4F/	.	4.a/	si-	.
4AA/	l'in-	[4A/	l'in-	8c\L	.	4E/	.	.	.	.
.	.	.	.	8B\J	.	.	.	8g/	o	.
=63	=63	=63	=63	=63	=63	=63	=63	=63	=63	.
4D\	gius-	4A/]	.	2A/	.	4F/	.	4.f/	mio	.
4D\	to	2F/	gius-	.	.	4A/	.	.	.	.
.	.	.	.	.	.	.	.	8e/	de-	.
4.D\	mio-	.	.	2A/	o;	4.F/	.	2d/	si-	.
.	.	4D/	to	.	.	.	.	.	.	.
16C/LL	.	.	.	.	.	8G/	.	.	.	.
16BB/JJ	.	.	.	.	.	.	.	.	.	.
=64	=64	=64	=64	=64	=64	=64	=64	=64	=64	.
4AA/	.	4E/	mio	1r	.	4A/	.	4c#/	.	.
4GG/	de-	4G/	de-	.	.	4B-\	.	2d/	.	.
2AA/	si-	2E/	si-	.	.	2A/	.	.	.	.
.	.	.	.	.	.	.	.	4c#/	.	.
=65	=65	=65	=65	=65	=65	=65	=65	=65	=65	.
1D\	o;	1D/	o;	2r	.	2A/	.	2d/	o;	>
.	.	.	.	4r	.	4r	.	4r	.	.
.	.	.	.	[4d\	N&egrave;	[4f\	.	[4a/	N&egrave;	<HOM_3v
=66	=66	=66	=66	=66	=66	=66	=66	=66	=66	.
1r	.	1r	.	4d\]	.	4f\]	.	4a/]	.	.
.	.	.	.	4e\	sia	4g\	.	4cc\	sia	.
.	.	.	.	2f\	pi&ugrave;	4a\	.	2cc\	pi&ugrave;	.
.	.	.	.	.	.	4a\	.	.	.	.
=67	=67	=67	=67	=67	=67	=67	=67	=67	=67	.
1r	.	1r	.	4d\	che	4a\	.	4dd\	che	.
.	.	.	.	4A/	mi	2a\	.	4cc\	mi	.
.	.	.	.	2e\	sog-	.	.	2b\	sog-	.
.	.	.	.	.	.	4g\	.	.	.	.
=68	=68	=68	=68	=68	=68	=68	=68	=68	=68	.
1r	.	1r	.	4A/	ne	2a\	.	1a/	ne	>
.	.	.	.	2d\	N&egrave;	.	.	.	.	<CON_3v
.	.	.	.	.	.	4r	.	.	.	.
.	.	.	.	4d\	sia	[4a\	.	.	.	.
=69	=69	=69	=69	=69	=69	=69	=69	=69	=69	.
1r	.	1r	.	2d\	pi&ugrave;	4a\]	.	4r	.	.
.	.	.	.	.	.	4a\	.	2dd\	Co-	.
.	.	.	.	4d\	che	2a\	.	.	.	.
.	.	.	.	4d\	mi	.	.	4dd\	ro-	.
=70	=70	=70	=70	=70	=70	=70	=70	=70	=70	.
1r	.	1r	.	2G/	sog-	4.g\	.	2dd\	na-	.
.	.	.	.	.	.	8f\	.	.	.	.
.	.	.	.	2A/	ne	4e\	.	4.cc\	to	.
.	.	.	.	.	.	4a\	.	.	.	.
.	.	.	.	.	.	.	.	8b\	di	.
=71	=71	=71	=71	=71	=71	=71	=71	=71	=71	.
1r	.	1r	.	2.d\	Co-	4f\	.	2a/	te	.
.	.	.	.	.	.	4g\	.	.	.	.
.	.	.	.	.	.	[2a\	.	2a/	lar-	.
.	.	.	.	4d\	ro-	.	.	.	.	.
=72	=72	=72	=72	=72	=72	=72	=72	=72	=72	.
1r	.	1r	.	2d\	na-	4a\]	.	2f/	vee	.
.	.	.	.	.	.	8g\L	.	.	.	.
.	.	.	.	.	.	8f\J	.	.	.	.
.	.	.	.	4.c\	to	[2e\	.	2g/	men-	.
.	.	.	.	8B\	di	.	.	.	.	.
=73	=73	=73	=73	=73	=73	=73	=73	=73	=73	.
1r	.	1r	.	4A/	te	4e\]	.	2.a/	zog-	.
.	.	.	.	4A/	lar-	2f\	.	.	.	.
.	.	.	.	4F/	vee	.	.	.	.	.
.	.	.	.	4G/	men-	8e\L	.	8g/L	.	.
.	.	.	.	.	.	8d\J	.	8f/J	.	.
=74	=74	=74	=74	=74	=74	=74	=74	=74	=74	.
1r	.	1r	.	1A/	zog-	4c\	.	4e/	.	.
.	.	.	.	.	.	2d\	.	4d/	.	.
.	.	.	.	.	.	.	.	2e/	.	.
.	.	.	.	.	.	4c\	.	.	.	.
=75	=75	=75	=75	=75	=75	=75	=75	=75	=75	.
2r	.	2r	.	2D/	ne	2d\	.	2d/	ne	>
[2D\	N&egrave;	[2A/	N&egrave;	4r	.	4r	.	4r	.	<HOMrep_5v
.	.	.	.	[4D/	N&egrave;	[4d\	.	4f#/	N&egrave;-	.
=76	=76	=76	=76	=76	=76	=76	=76	=76	=76	.
4D\]	.	4A/]	.	4D/]	.	4d\]	.	4r	.	.
4C/	sia	4c\	sia	4G/	sia	4e\	.	4g/	sia	.
2F\	pi&ugrave;	2c\	pi&ugrave;	4F/	pi&ugrave;	2f\	.	4a/	pi&ugrave;	.
.	.	.	.	[4A/	che	.	.	4a/	che	.
=77	=77	=77	=77	=77	=77	=77	=77	=77	=77	.
4D\	che	4d\	che	4A/]	.	4f\	.	4a/	mi	.
4AA/	mi	4c\	mi	4A/	mi	4e\	.	2a/	sog-	.
2E\	sog-	2B\	sog-	2E/	sog-	2e\	.	.	.	.
.	.	.	.	.	.	.	.	4g/	.	.
=78	=78	=78	=78	=78	=78	=78	=78	=78	=78	.
[1AA/	ne	4A/	ne	2E/	ne	2c\	.	[1a/	ne	>
.	.	2e\	Co-	.	.	.	.	.	.	<CON_rep_5v
.	.	.	.	4r	.	[2c\	.	.	.	.
.	.	4e\	ro-	[4e\	Co-	.	.	.	.	.
=79	=79	=79	=79	=79	=79	=79	=79	=79	=79	.
1AA/]	.	2e\	na-	4e\]	.	4c\]	.	1a/]	.	.
.	.	.	.	4e\	ro-	4c\	.	.	.	.
.	.	4.c\	to	2e\	na-	[2e\	.	.	.	.
.	.	8B\	di	.	.	.	.	.	.	.
=80	=80	=80	=80	=80	=80	=80	=80	=80	=80	.
4r	.	2A/	te	4.c\	to	2e\]	.	2r	.	.
2A\	Co-	.	.	.	.	.	.	.	.	.
.	.	.	.	8B\	di	.	.	.	.	.
.	.	2c\	lar-	4A/	te	2e\	.	[2e/	N&egrave;	.
4A\	ro-	.	.	4e\	la-	.	.	.	.	.
=81	=81	=81	=81	=81	=81	=81	=81	=81	=81	.
2A\	na-	2A/	vee	2c\	vee	1r	.	4e/]	.	.
.	.	.	.	.	.	.	.	4f/	sia	.
4.G\	to	[2B\	men-	2d\	men-	.	.	[2g/	piu-	.
8F\	di	.	.	.	.	.	.	.	.	.
=82	=82	=82	=82	=82	=82	=82	=82	=82	=82	.
4E\	te	4B\]	.	2.e\	zog-	1r	.	2g/]	.	.
4E\	lar-	2c\	zog-	.	.	.	.	.	.	.
4C/	vee	.	.	.	.	.	.	4a/	che	.
4D\	men-	8B/L	.	8d\L	.	.	.	4f/	mi	.
.	.	8A/J	.	8c\J	.	.	.	.	.	.
=83	=83	=83	=83	=83	=83	=83	=83	=83	=83	.
1E\	zog-	4G/	.	4B\	.	2r	.	2e/	sog-	.
.	.	2A/	.	4A/	.	.	.	.	.	.
.	.	.	.	2B\	.	4r	.	2e/	ne	.
.	.	4G/	.	.	.	[4e\	.	.	.	.
=84	=84	=84	=84	=84	=84	=84	=84	=84	=84	.
1AA/	ne	4A/	ne	2c\	ne	4e\]	.	1r	.	.
.	.	2A/	Co-	.	.	4e\	.	.	.	.
.	.	.	.	4r	.	2e\	.	.	.	.
.	.	4A/	ro-	[4e\	lar-	.	.	.	.	.
=85	=85	=85	=85	=85	=85	=85	=85	=85	=85	.
2r	.	2A/	na-	4e\]	.	4.c\	.	1r	.	.
.	.	.	.	2c\	vee	.	.	.	.	.
.	.	.	.	.	.	8B\	.	.	.	.
4r	.	4.F/	to	.	.	2A/	.	.	.	.
[4D\	Co-	.	.	4d\	men-	.	.	.	.	.
.	.	8E/	di	.	.	.	.	.	.	.
=86	=86	=86	=86	=86	=86	=86	=86	=86	=86	.
4D\]	.	2D/	te	2d\	zog-	2A/	.	2.dd\	Co-	.
4D\	ro-	.	.	.	.	.	.	.	.	.
2D\	na-	2F/	lar-	2A/	ne	[2F/	.	.	.	.
.	.	.	.	.	.	.	.	4dd\	ro-	.
=87	=87	=87	=87	=87	=87	=87	=87	=87	=87	.
4.BB-/	to	2D/	vee	1r	.	4F/]	.	2dd\	na-	.
.	.	.	.	.	.	4G/	.	.	.	.
8BB-/	di	.	.	.	.	.	.	.	.	.
2AA/	te	2E/	men-	.	.	2A/	.	4.cc\	to	.
.	.	.	.	.	.	.	.	8b\	di	.
=88	=88	=88	=88	=88	=88	=88	=88	=88	=88	.
1r	.	2F/	zog-	4r	.	2D/	.	2a/	te	.
.	.	.	.	2d\	Co-	.	.	.	.	.
.	.	2D/	ne	.	.	2f\	.	2a/	lar-	.
.	.	.	.	4d\	ro-	.	.	.	.	.
=89	=89	=89	=89	=89	=89	=89	=89	=89	=89	.
1r	.	1r	.	2d\	na-	2d\	.	2f/	vee	.
.	.	.	.	4.c\	to	2e\	.	2g/	men-	.
.	.	.	.	8B\	di	.	.	.	.	.
=90	=90	=90	=90	=90	=90	=90	=90	=90	=90	.
2.D\	Co-	2r	.	2A/	te	1f\	.	1a/	zog-	.
.	.	2F/	lar-	2A/	lar-	.	.	.	.	.
4D\	ro-	.	.	.	.	.	.	.	.	.
=91	=91	=91	=91	=91	=91	=91	=91	=91	=91	.
2D\	na-	2D/	vee	2F/	vee	2f\	.	2a/	ne	.
4.C/	to	2E/	men-	2G/	men-	[2e\	.	2r	.	.
8BB/	di	.	.	.	.	.	.	.	.	.
=92	=92	=92	=92	=92	=92	=92	=92	=92	=92	.
2AA/	te	2c\	zog-	2A/	zog-	2e\]	.	4r	.	.
.	.	.	.	.	.	.	.	2a/	Co-	.
2AA/	lar-	2A/	ne	4E/	ne	2c\	.	.	.	.
.	.	.	.	4c\	lar-	.	.	4a/	ro-	.
=93	=93	=93	=93	=93	=93	=93	=93	=93	=93	.
2FF/	vee	2r	.	2A/	vee	2d\	.	2a/	na-	.
2GG/	men-	2E/	lar-	2B\	men-	[2e\	.	4.g/	to	.
.	.	.	.	.	.	.	.	8f/	di	.
=94	=94	=94	=94	=94	=94	=94	=94	=94	=94	.
[1AA/	zog-	2C/	vee	4c\	zog-	4e\]	.	2e/	te	.
.	.	.	.	4B\	.	4d\	.	.	.	.
.	.	2D/	men-	4A/	.	[2d\	.	2f/	lar-	.
.	.	.	.	4G/	.	.	.	.	.	.
=95	=95	=95	=95	=95	=95	=95	=95	=95	=95	.
1AA/]	.	1E/	zog-	1A/	.	4d\]	.	4e/	vee	.
.	.	.	.	.	.	8c\L	.	4e/	me-	.
.	.	.	.	.	.	8B\J	.	.	.	.
.	.	.	.	.	.	2c\	.	2a/	zog-	.
=96	=96	=96	=96	=96	=96	=96	=96	=96	=96	.
1D\	ne.	1D/	ne.	1A/	ne.	1d\	.	1f#/	ne.	>
==	==	==	==	==	==	==	==	==	==	==
*-	*-	*-	*-	*-	*-	*-	*-	*-	*-	*-